X:1
T:Khvalitye imya Gospodie
T:Сергeй Рахманинов, 1910
T:Attributed to John Chrysostom, c. 349-407 AD
T:Да исполнятся уста наша
T:Литургиа Святого Иоанна Златоуста , Op. 31, No. 18
T:Public Domain
T:Public Domain
T:Public Domain
T:Public Domain
T:Public Domain
T:Public Domain
T:Public Domain
T:Public Domain
C:Sergei Rakhmanninov
Z:Public Domain
%%score [ 1 ( 2 3 ) ( 4 5 ) ( 6 7 ) ]
L:1/8
Q:1/4=45
M:3/4
K:F
V:1 treble nm="Сопрано" snm="С"
V:2 treble nm="Альт" snm="А"
V:3 treble 
V:4 treble-8 nm="Тенор" snm="Т"
V:5 treble-8 
V:6 bass nm="Бас" snm="Б"
V:7 bass 
V:1
"^Медленно\nSlow" z2!p!"^Да  ис–пол-нят-ся           ус –та    на  – ша           хва   –   ле – ни–я            Тво-е –го,    Го–спо–ди,""^Da   ic–pol-nyat-sya           us – ta    na  – sha         khva  –  lye –  ni–ya          Tvo-ye-vo,   Go–spo– di," A2 G2 | %1
 !tenuto!B3 A A2- | A2 A2 G2 | !tenuto!B4 A2- | A2!<(! (A2 G2)!<)! |!>(! !tenuto!B2 A2 A2-!>)! | %6
 A2!p! GF G2 | !tenuto!B3 A A2- | %8
 A z!p!"^я – ко    да        по – ем                                                     сла    –   ву Тво-ю,                         я – ко спо–до–бил е –""^ya–ko    da        po –yem                                                    sla    –   vu Tvo-yu,                        ya– ko spo–do– bil ye –" F2 G2 | %9
 (A2!>(! B2) c2!>)! |!pp! (!tenuto!c3 B A2 | c3 A G2) | (!tenuto!c3 d) Bc | c6 | %14
"^немного скорее\na little faster"[Q:1/4=55]!p! F2 G2 A2 | B2 A2 B2 | %16
"^–си            нас            при–час – ти       –       –       –      ти       –       –    ся,                     при–час   –   ти  –   ти–ся""^– si             nas             pri –chas– ti         –       –       –       ti         –       –   sya,                     pri –chas  –    ti   –    ti –sya"!<(! (c2 d2) _e2-!<)! | %17
 e2!<(! f2 _e2!<)! |!f! (g4 f2- | f2)!>(! (_e2 d2-!>)! | d2) (c2 B2- | B2)!mf! A2!<(! A2!<)! | %22
 !tenuto!A3!>(! B B2-!>)! | %23
 B"^Свя–тым Тво –  им,                                                 Бо       –        –        жест  –  вен–ным,                     без   –""^Svya–tuim Tvo –  im,                                                 Bo       –        –       zhest   –  ven– nuim,                    bez   –"!<(!B !tenuto!c2 BA!<)! | %24
!>(! (A4 B2-!>)! | B)=B!<(! cdcB!<)! |!>(! !tenuto!=B3 c (c_B!>)! | AG)!p!!<(! (G2 ^F2)!<)! | %28
"^–смерт-ным и   жи–вот–во   –   ря–шим тай – нам,           и     жи–вот–во–ря   –    шим   тай –нам,      тай–нам:""^–smert–nuim i    zhi– vot –vo  –   rya-shim  tai   – nam,            i     zhi– vot –vo–rya  –   shim     tai  – nam,      tai –nam:"!>(! !tenuto!^F2 G2!p! G2!>)! | %29
 G2 G2!<(! G2!<)! |!>(! !tenuto!d4 G2!>)! |!>(! !tenuto!B6!>)! | A2- A z!p! A2 | A2 A2 A2 | %34
!>(! !tenuto!A4 G2!>)! |!pp!"^задерживая\nslowing"[Q:1/4=45] G6 | F4 z2 |!ppp! D4 C2- | %38
[Q:1/4=35] C6- | %39
[Q:1/4=45]"^Темп, как в начале\nTempo as at the beginning" C2!p!"^со  –  блю   –    ди               нас            во               Тво  –  ей             свя     –     ты    –    ни,""^so  –  blyu    –    di                nas             vo               Tvo  –  yei           svya    –      tui    –    ni," C2 C2 | %40
 (!tenuto!G3 F) E2 |"^постепенно увеличивая звучность\ngradually louder" (F2 G2) A2 | %42
!mp! (B3 A) G2 | (A2 B2) c2 | %44
"^весь                        день   по–у – ча   –    ти–ся  прав-де Тво–ей,               прав-де  Тво–ей.                 весь""^ves'                          den'    po–u –cha  –    ti–sya prav–dye Tvo–yei,             prav-dye Tvo–yei,                 ves'" (!tenuto!d3 A B2) | %45
!mf! c2 B2 c2 |!<(! d3 d ^c2!<)! |!f! f2 e2 d2 |!>(! (c2 A2 d2)!>)! |!p! c2 B2 ^F2 | %50
!<(! (G2 A2 B2)!<)! |!mf! (!tenuto!B3 A G2) | %52
"^день по – у    –    ча     –    ти – ся                          прав-де           Тво–ей. Ал-ли–лу    –     иа,        Ал –ли–лу    –     иа,""^den'   po – u    –   cha    –     t i–sya                          prav–dye         Tvo–yei, Al– li – lu     –      ia,         Al  – li  – lu     –      ia," B2 A2 G2 | %53
!mf! (!tenuto!B3!>(! A) G2!>)! |!p! (B2!<(! A2 G2)!<)! |!mf!!>(! _G4 F2-!>)! | F2 E4 | %57
!p!"^все затихая\nall quieter" F2 F2 F2 | ((!tenuto![Ac]3 F)) F2- | F2 F2 F2 | (([Ac]3 F)) F2- | %61
 F2!pp!"^Ал  –  ли – лу    –     иа,              Ал  – ли    –     лу             –              иа.""^Al    –   li   – lu     –      ia,               Al   –   li     –      lu              –               ia." F2 F2 | %62
 (([Ac]2 F2)) (([Ac]2 | F2)) [Ac]2 F2 | (c4 F2) | !fermata!F6 |] %66
V:2
 z2!p! F2 E2 | !tenuto!E3 F F2- | F2 F2 E2 | !tenuto!G4 F2- | F2!<(! (F2 E2)!<)! | %5
!>(! !tenuto!G2 F2 F2-!>)! | F2!p! GF G2 | !tenuto!E3 F F2- | F z!p! D2 E2 | F4!>(! C2!>)! | %10
!pp! C6- | C6 | %12
"^сла–ву   Тво  –  ю,                          я     –    ко            спо –""^sla –vu   Tvo  –  yu,                        ya   –     ko            spo –" D2 C2 F2 | %13
 C6 |!p! _E4 E2- | E2 _E4 | %16
"^–до          –           бил         е     –   си                           нас.""^–do          –            bil          ye   –    si                             nas."!<(! (_E2 F2 G2)!<)! | %17
 (A2!<(! B2) c2!<)! |!f! (c2 d2 _e2) |!>(! ((G4 F2!>)! | (_E6-)) | E2)!mf! [DF]3!<(! [C_E]!<)! | %22
 !tenuto![_EG]3!>(! [DF] [DF]2-!>)! | [DF]!<(![DF] [C_E]2 [DF][EG]!<)! | %24
!>(! (([_EG]4 [DF]2-))!>)! | [DF]2!<(! [C_E][=B,D][CE][DF]!<)! | %26
!>(! !tenuto![DF]3 [C_E] [CE]2-!>)! | [CE]2!p! [B,D]!<(![A,C][B,D][C_E]!<)! | %28
!>(! !tenuto![A,C]2 B,2!p! B,2!>)! | C2 D2!<(! _E=E!<)! |!>(! !tenuto!F4 E2!>)! | %31
!>(! !tenuto!E6!>)! | F2- F z!p! F2 | F2 F2 F2 | (!tenuto!F2!>(! C2) ^C2!>)! |!pp! ^C6 | D4 z2 | %37
!ppp!"^тай  –""^tai   –" G,6- | (G,4 B,2) | %39
"^– нам,""^– nam," A,2 z2!p!"^со–блю –ди    нас,  со–блю –ди                           нас,           со–блю –ди""^so–blyu – di     nas,   so–blyu – di                            nas,           so–blyu – di" CC | %40
 !tenuto!C3 C CC | (C4 C)!mp!D | !tenuto!E4 CC | F4- FE | %44
"^нас        во  Тво – ей            свя – ты      –      ни,     весь          день по–у  –  ча    –    ти – ся                   весь""^nas,        vo  Tvo –yei           svya– tui       –       ni,       ves'           den'  po–u  –  cha  –     ti  – sya                  ves'" _E4 FF | %45
!mf! (F2 B2) [FA]2 |!<(! (G2 ^G2) A2!<)! |!f! (A4 E2) |!>(! F2 E2 _E2!>)! |!p! (_E2 D2) A,2 | %50
!<(! (B,2 ^F2 G2)!<)! |!mf! D6 | F2 F2 F2 |!mf!!>(! _D4 D2!>)! |!p!!<(! F6!<)! | %55
!mf!!>(! B,4 B,2-!>)! | B,2 B,4 |!p! A,2 F2 F2 | F4 F2- | F2 F2 F2 | F4 F2- | F2!pp! F2 F2 | %62
 F4 F2- | F2 F2 F2 | F6 | !fermata![A,F]6 |] %66
V:3
 x6 | x6 | x6 | x6 | x6 | x6 | x6 | x6 | x6 | x6 | x6 | x6 | x6 | x6 | x6 | x6 | _E6 | _E4 E2 | %18
 A6 | G4 F2 | _E6 | _E2 x4 | x6 | x6 | x6 | x6 | x6 | x6 | x6 | x6 | x6 | x6 | x6 | x6 | x6 | x6 | %36
 x6 | x6 | x6 | x6 | x6 | (C3 B, A,2) | C4 CC | (C3 B, A,2) | G4 FF | F(_E D2) x2 | x6 | x6 | x6 | %49
 x6 | x6 | x6 | x6 | x6 | x6 | x6 | x6 | x6 | x6 | x6 | x6 | x6 | (C2 D2) (C2 | D2) C2 D2 | %64
 (C3 B, B,A,) | x6 |] %66
V:4
 z2!p!"^Да  ис–пол-нят-ся           ус –та    на  – ша           хва   –   ле – ни–я            Тво-е –го,    Го–спо–ди,""^Da   ic–pol-nyat-sya           us – ta    na  – sha         khva  –  lye –  ni–ya          Tvo-ye-vo,   Go–spo– di," d2 e2 | %1
 !tenuto!c3 d d2- | d2 [Ac]2 c2 | !tenuto![Gd]4 [Ac]2- | [Ac]2!<(! c4!<)! | %5
!>(! !tenuto!c2 c2 c2-!>)! | c2!p! cc c2 | !tenuto![Gc]3 [Fc] [Fc]2- | %8
 [Fc] z!p!"^я – ко    да        по – ем                                                     сла–ву   Тво  –   ю,                         я       –       –       –""^ya–ko    da        po –yem                                                   sla  –vu   Tvo  –  yu,                        ya     –       –       –" d2 c2 | %9
 (([Ac]2!>(! [Fd]2)) [Af]2!>)! |!pp! ([ca]2 [Bg]2 [Af]2 | [Ge]2 [Fd]2 [Ec]2) | [Fd]2 [Ec]2 [DB]2 | %13
 (A2 G2 F2) |!p!"^я– ко спо–до–бил  е –""^ya–ko spo–do– bil  ye –" A2 B2 c2 | d2 c2 B2 | %16
"^–си                       нас при–час –ти       –        –      –     ти      –      ся.""^– si                        nas  pri –chas– ti        –        –      –      ti        –     sya.""^–ко                         спо         –           до      –       –        –      бил            нас                             при  – час – ти   –  ти–ся""^–ko                          spo        –            do      –       –        –       bil              nas                              pri    –chas–  ti     –  ti –sya"!<(! (A4 B2)!<)! | %17
 c2!<(! d2 _e2!<)! |!f! (_e4 A2 | B2)!>(! ((c2 d2))!>)! | ((_e2 c2 d2 | %21
 _e2))!mf!!<(! [df]3 [ce]!<)! | [_eg]3!>(! [df] [df]2-!>)! | %23
 [df]"^Свя–тым Тво –  им,                                                 Бо       –        –        жест  –  вен–ным,                     без   –""^Svya–tuim Tvo –  im,                                                 Bo       –        –       zhest   –  ven– nuim,                    bez   –"!<(![df] [c_e]2 [df][eg]!<)! | %24
!>(! ((!tenuto![_eg]4 [df]2-))!>)! | [df]2!<(! [c_e][=Bd][ce][df]!<)! | %26
!>(! !tenuto![df]3 [c_e] [ce]2-!>)! | [ce]2!p! [Bd]!<(![Ac][Bd][c_e]!<)! | %28
"^–смерт-ным и   жи–вот–во   –   ря–шим тай – нам,           и     жи–вот–во–ря   –    шим   тай –нам:""^–smert–nuim i    zhi– vot –vo  –   rya-shim  tai   – nam,            i     zhi– vot –vo–rya  –   shim     tai  – nam:"!>(! !tenuto![Ac]2 B2!p! G2!>)! | %29
 [DG]2 [DG]2!<(! G2!<)! |!>(! !tenuto![Gd]4 [Gc]2!>)! |!>(! !tenuto![GB]6!>)! | %32
 [FA]2- [FA] z!p! A2 | A2 B2 =B2 | (!tenuto!c2!>(! F2) E2!>)! |!pp! E6 | F4 z2 | z6 | %38
 z2!p!"^со  –  блю  –  ди                                   нас  во      Тво      –    ей              свя   –  ты    –    ни,              весь""^so  –  blyu   –  di                                    nas   vo      Tvo      –   yei            svya   –  tui     –     ni,                ves'" C2 C2 | %39
 (F2 E2 D2) | E2 F2 G2 | (A2 G2) F2 |!mp! (G2 A2) B2 | (c2 B2 A2) | %44
"^день по – у     –     ча       –      ти –ся                         прав-де  Тво–ей,             прав-де  Тво–ей.                 весь""^den'  po –u      –    cha      –       ti– sya                       prav–dye Tvo–yei,            prav-dye Tvo–yei,                 ves'" B2 c2 d2 | %45
!mf! (_e2 d2) c2 |!<(! (d2 ef g2)!<)! |!f! f2 e2 d2 |!>(! (c3 B A2)!>)! |!p! ^F2 G2 c2 | %50
!<(! (B2 _e2 d2)!<)! |!mf! F6 | %52
"^день по – у    –    ча     –    ти – ся                          прав-де           Тво–ей.                     Ал  – ли – лу   –   иа,         Ал –  ли–""^den'   po – u    –   cha    –     t i–sya                          prav–dye         Tvo–yei,                     Al   –  li   – lu    –    ia,          Al  –   li  –" d2 c2 B2 | %53
!mf!!>(! F4 F2!>)! |!p! (_d2!<(! c2 B2)!<)! |!mf!!>(! _D4 D2-!>)! | D2 C4 |!p! [CA]6- | %58
 [CA]2!p! c2 B2 | (!tenuto!d3 c) c2- | c2!pp! A2 G2 | %61
"^– лу       –     иа,   Ал     –     ли  – лу – иа,    Ал–ли –лу            –             иа.""^– lu        –      ia,     Al     –       li    – lu  –  ia,     Al – li  – lu             –              ia." (!tenuto!B3 A) A2 | %62
 (c2 A2) [Ac]2 | A2 [Ac]2 AA | ([Ac]3 ([GB] [GB])[FA]) | !fermata![Ac]6 |] %66
V:5
 x6 | x6 | x6 | x6 | x6 | x6 | x6 | x6 | x6 | x6 | x6 | x6 | x6 | C6 | F6- | F6 | F6 | (F4 G2) | %18
 (A6 | B2) c2 d2 | _e2 c2 d2 | _e2 x4 | x6 | x6 | x6 | x6 | x6 | x6 | x6 | x6 | x6 | x6 | x6 | x6 | %34
 x6 | x6 | x6 | x6 | x6 | x6 | x6 | x6 | x6 | x6 | x6 | x6 | x6 | x6 | x6 | x6 | x6 | x6 | x6 | %53
 x6 | x6 | x6 | x6 | x6 | x6 | x6 | x6 | x6 | A4 x2 | x6 | x6 | x6 |] %66
V:6
 z6 | z6 | z6 | z6 | %4
 z2!p!"^Да  ис–пол-нят-ся            ус    –  та       на    –    ша""^Da   ic–pol-nyat-sya            us     –  ta        na    –   sha"!<(! F,2 G,2!<)! | %5
!>(! !tenuto!E,2 F,2 (D,2!>)! | F,2)!p! E,D, E,2 | !tenuto!C,4 F,2- | F, z z2 z2 | %9
 z2"^хва   –   ле   –   ни–я            Тво –  е  –   го,                        Го  –   спо-ди.""^khva –  lye  –    ni–ya           Tvo – ye  – vo,                        Go  –   spo–di.""^khva –   lye   –       ni   –ya                         Tvo    –    ye    –  vo.""^хва   –    ле    –      ни  – я                          Тво    –     е     –   го."!>(! ((F,2 C,2))!>)! | %10
!pp! C,3 C, C,2- | C,2 C,2 [E,B,]2 | ([F,A,]2 [E,G,]2 [D,F,]2) | C,3 B,, A,,2 | z6 | z6 | z6 | z6 | %18
!mf!"^я        –      ко        да          по  –   ем                     сла–ву        Тво– ю,   я    –    ко  спо–""^ya      –      ko        da          po   – yem                    sla  –vu       Tvo -yu,   ya  –    ko  spo–""^я       –        –         ко           спо –  до      –       –        –      бил            нас""^ya    –        –          ko           spo –  do      –       –        –       bil               nas" (C,2 =B,,2) C,2 | %19
 (D,2 _E,2) F,2 | (G,2!<(! A,2 B,2)!<)! |!f! C2!mf! F,3 F, | F,2!<(! F,2 F,F,!<)! | %23
"^–до         –        бил              е –си                       нас при–час –ти       –        –      –     ти      –      ся,           при     –      час –""^–do         –         bil              ye – si                        nas  pri –chas– ti         –        –      –      ti       –      sya,          pri       –      chas–"!>(! G,4 F,2-!>)! | %24
"^при       –      час   –    ти        –      ти–ся             нас                                    при          –          час –""^pri         –      chas  –     ti         –       ti –sya            nas                                     pri            –         chas –" F,F, F,2 F,2- | %25
!>(! F,2!<(! G,2 G,2!>)!!<)! |!>(! !tenuto!_A,2 G,2 G,2-!>)! | G,2!p!!<(! D,3 D,!<)! | %28
"^–ти –ти-ся.""^– ti   –ti–sya."!>(! !tenuto!_E,2 D,2!p! D,2!>)! | %29
"^жи–вот–во   –   ря–шим тай – нам,           и     жи–вот–во–ря   –    шим   тай –нам,      тай-нам:""^zhi– vot –vo  –   rya-shim  tai   – nam,            i     zhi– vot –vo–rya  –   shim     tai  – nam,      tai–nam:" A,,2 B,,2!<(! B,,2!<)! | %30
!>(! =B,,4 C,2!>)! |!>(! !tenuto!^C,6!>)! | D,2- D, z!p! F,2 | E,2 D,2 _D,2 | %34
 (!tenuto!C,2!>(! A,,2) A,,2!>)! |!pp! B,,6 | B,,4 z2 |!ppp! [=B,,F,]4 [C,E,]2- | %38
 [C,E,]4- [C,E,]!p! z | %39
"^со        –        блю    –    ди             нас             во               Тво  –  ей           свя     –     ты     –     ни,""^so         –        blyu   –     di              nas              vo               Tvo  –  yei         svya    –      tui     –      ni,""^тай        –         –       нам,                              тай        –        –        –        –        –       –    нам:""^tai          –         –       nam,                              tai          –        –        –        –        –        –   nam:" (F,,2 G,,2) A,,2 | %40
 B,,4 B,,2 | (A,,2 B,,2) C,2 |!mp! C,4 C,2 | (C,3 D,) E,2 | %44
"^весь     день         по      –      у  – ча    –   ти– ся""^ves'      den'          po      –      u  – cha   –   ti  – sya" F,4 F,2 | %45
!mf! (F,2 G,2) A,2 |!<(! B,3 B, A,2!<)! | %47
!f!"^прав-де Тво–ей,               прав-де  Тво–ей.                   весь""^prav–dye Tvo–yei,              prav-dye Tvo–yei,                  ves'" D3 C B,2 | %48
!>(! (A,2 G,2 F,2)!>)! |!p! B,,2 D,2 _E,2 |!<(! (D,2 C,2 B,,2)!<)! |!mf! (!tenuto!G,,2 A,,2 B,,2) | %52
 (!tenuto!B,,3 C,) !tenuto!D,B,, |!mf! (!tenuto!G,,2!>(! A,,2) B,,2!>)! | %54
!p! (B,,3!<(! C, _D,B,,)!<)! |!mf!!>(! _G,,4 =G,,2-!>)! | G,,2 C,4 |!p! F,,6- | F,,2!p! A,2 G,2 | %59
 !tenuto!B,3 A, A,2- | A,2!pp! C,2 B,,2 | (!tenuto!D,3 C,) C,2 | (C,2 D,2) C,2 | D,2 C,2 D,D, | %64
 (C,4 D,2) | !fermata![F,,C,]6 |] %66
V:7
 x6 | x6 | x6 | x6 | x6 | x6 | x6 | x6 | x6 | x6 | F,,4 F,,2 | F,,6 | F,,4 F,,2 | F,,6 | x6 | x6 | %16
 x6 | x6 | F,,6 | F,,4 F,,2 | F,,6- | F,,2 F,4 | B,,6- | B,,6 | B,,4 B,,_A,, | G,,3 G,, G,,2 | %26
 C,6 | D,,4 D,,2 | G,,3 G,, G,,2 | x6 | x6 | x6 | x6 | x6 | x6 | x6 | x6 | x6 | x6 | F,,6 | F,,6 | %41
 F,,6- | F,,6 | F,,6 | F,6 | B,,2 B,,2 F,2 | B,3 B, A,2 | x6 | x6 | x6 | x6 | x6 | x6 | x6 | x6 | %55
 x6 | x6 | x6 | x6 | x6 | x6 | x6 | F,,4 F,,2 | F,,2 F,,2 F,,F,, | F,,6 | x6 |] %66

